images/icons/telegram.svg

<svg width="40" height="41" viewBox="0 0 40 41" fill="none" xmlns="http://www.w3.org/2000/svg">
<path d="M32.2011 38.3895C31.8887 38.3895 31.5784 38.297 31.3121 38.1165L21.2546 31.2942L15.8602 35.1757C15.4372 35.48 14.8919 35.5566 14.4006 35.3809C13.91 35.2049 13.5374 34.7985 13.4044 34.2946L10.6958 24.0299L1.01781 20.3293C0.408538 20.0962 0.00447019 19.5134 3.68406e-05 18.861C-0.00439651 18.2087 0.391649 17.6203 0.997963 17.379L37.7973 2.73629C37.9643 2.66536 38.141 2.6244 38.3192 2.61343C38.3829 2.60963 38.4469 2.60963 38.5104 2.61322C38.8795 2.63517 39.2419 2.78548 39.5248 3.06288C39.5542 3.0916 39.582 3.12094 39.6084 3.15155C39.8428 3.41924 39.9715 3.74562 39.9958 4.07812C40.0017 4.16172 40.0013 4.24638 39.9939 4.33103C39.9888 4.39141 39.9802 4.45158 39.9679 4.51132L33.7564 37.1026C33.6565 37.6261 33.3002 38.0644 32.8079 38.2685C32.6126 38.3496 32.4063 38.3895 32.2011 38.3895ZM22.1376 28.0668L31.0966 34.1436L35.9298 8.78402L18.4736 25.5813L22.0954 28.0383C22.11 28.0473 22.1239 28.0571 22.1376 28.0668ZM14.6797 26.7154L15.8792 31.2607L18.4637 29.401L15.0795 27.1054C14.9223 26.999 14.7876 26.8664 14.6797 26.7154ZM5.93988 18.8207L12.5853 21.3614C13.0613 21.5434 13.4206 21.9437 13.5507 22.4364L14.3934 25.6303C14.4321 25.2619 14.5991 24.9153 14.8703 24.6541L31.5036 8.6489L5.93988 18.8207Z" fill="#512DA8"/>
</svg>

<svg width="40" height="41" fill="none" xmlns="http://www.w3.org/2000/svg"><path d="M32.201 38.39c-.312 0-.623-.093-.889-.273l-10.057-6.823-5.395 3.882a1.585 1.585 0 01-2.456-.881L10.696 24.03l-9.678-3.7a1.584 1.584 0 01-.02-2.951l36.8-14.643a1.584 1.584 0 012.17 1.775l-6.212 32.592a1.583 1.583 0 01-1.555 1.286zM22.138 28.066l8.959 6.077 4.833-25.36-17.456 16.797 3.621 2.457a.798.798 0 01.043.029zm-7.458-1.352l1.2 4.546 2.584-1.86-3.384-2.296a1.58 1.58 0 01-.4-.39zm-8.74-7.894l6.645 2.54c.476.182.836.583.966 1.075l.842 3.194c.04-.368.206-.715.477-.976L31.504 8.65 5.94 18.82z" fill="#512DA8"/></svg>
